X: 35
T: Je mesbais de vous
N: Derived from Bus3028-Je_mesbais_de_vous.krn
C: Antoine Busnoys
%%abc-version 2.0
%%abcx-abcm2ps-target-version 5.9.1 (29 Sep 2008)
%%abc-creator hum2abc beta
%%abcx-conversion-date 2019/02/16 20:26:07
%%abc-edited-by Jesse Rodin
%%abc-edited-by Chris Gage 04-13-2015
%%abcx-initial-encoding-date 2015/10/29/
%%humdrum-veritas 856317933
%%humdrum-veritas-data 3162461540
%%linebreak <none>
%%barnumbers 0
L: 1/4
M: 3/1
Q: 1/2=120
V: 1 clef=treble
V: 2 clef=treble-8
V: 3 clef=treble-8
K: F
[V:1] F8G4 | 
[V:2] F3GA2B4AG | 
[V:3] c6B2d2e2 | 
[V:1] A4B6A2 | 
[V:2] F4G6F2 | 
[V:3] f6ede3d | 
[V:1] A4c4B2A2- | 
[V:2] F8z2c2- | 
[V:3] f4z2c2d2c2 | 
[V:1] A2G2A3G/A/B2A2- | 
[V:2] cde2f3edcc2- | 
[V:3] AFG2F4z4 | 
[V:1] A2GFE2z2F4 | 
[V:2] c2=B2c4d4 | 
[V:3] D4C4B,4 | 
[V:1] E4A6G2 | 
[V:2] c4z4f4 | 
[V:3] C4D8 | 
[V:1] G4c6B2 | 
[V:2] e4a6g2 | 
[V:3] E4F8 | 
[V:1] B3AA2G2E4 | 
[V:2] g3ef2g4c2 | 
[V:3] G4D2E3CE2 | 
[V:1] F2G3FE2D4 | 
[V:2] d2e4c4=B2 | 
[V:3] D2C2E3FG4 | 
[V:1] C4z4z2c2- | 
[V:2] z2c4B2A2GF | 
[V:3] C6DEF2A2 | 
[V:1] c2B2A2GFE3D | 
[V:2] E3DF4G4 | 
[V:3] G4F2EDC4 | 
[V:1] F4G2A3GB2- | 
[V:2] F2A2B2c3BG2 | 
[V:3] F4z2F4E2 | 
[V:1] BAGFG2F3EED | 
[V:2] A2B3AGFG4 | 
[V:3] DCB,4D2C4 | 
[V:1] F4z4A3B | 
[V:2] F8z2f2 | 
[V:3] z2=c4AGF3G | 
[V:1] c6A2G4 | 
[V:2] e2a3gf4e2 | 
[V:3] A4F4c4 | 
[V:1] F4A4B4 | 
[V:2] f3ec2d4cB | 
[V:3] F8G4 | 
[V:1] c4F4E4 | 
[V:2] A4B4c4 | 
[V:3] F3ED4C4 | 
[V:1] A3GF2G2E2D2- | 
[V:2] F3GA2B2c2d2- | 
[V:3] z4F2E2C2G2- | 
[V:1] D2A3GF2E4 | 
[V:2] dcA2z2d4^c2 | 
[V:3] G2FED4A4 | 
[V:1] D2z2F4G4 | 
[V:2] d6c2B4 | 
[V:3] B6A2G4 | 
[V:1] A6GFGFED | 
[V:2] A4B8 | 
[V:3] F4E8 | 
[V:1] C4D2C2E2F2 | 
[V:2] A4B2c4A2 | 
[V:3] F2c2B2A3GF2 | 
[V:1] G2A3GF2E3F | 
[V:2] B2AGF2A2G2c2- | 
[V:3] E2F3DF2C3D | 
[V:1] G2A3BAG/F/E3D | 
[V:2] cBAGF2A2G4 | 
[V:3] E2F3DF2C4 | 
[V:1] F12 |]  
[V:2] F12 |]  
[V:3] c12 |]  



